public/icons/svgs/brands/google-plus.svg

<svg xmlns="http://www.w3.org/2000/svg" viewBox="0 0 512 512"><!--! Font Awesome Free 7.0.0 by @fontawesome - https://fontawesome.com License - https://fontawesome.com/license/free (Icons: CC BY 4.0, Fonts: SIL OFL 1.1, Code: MIT License) Copyright 2025 Fonticons, Inc. --><path fill="currentColor" d="M256 8a248 248 0 1 0 0 496 248 248 0 1 0 0-496zM185.3 380c-32.9 0-64.4-13.1-87.7-36.3s-36.3-54.8-36.3-87.7 13.1-64.4 36.3-87.7 54.8-36.3 87.7-36.3c31.3 0 60.1 11 83 32.3l-33.6 32.6c-13.2-12.9-31.3-19.1-49.4-19.1-42.9 0-77.2 35.5-77.2 78.1S142.3 334 185.3 334c32.6 0 64.9-19.1 70.1-53.3l-70.1 0 0-42.6 116.9 0c1.3 6.8 1.9 13.8 1.9 20.7 0 70.8-47.5 121.2-118.8 121.2zM415.5 273.8l0 35.5-35.5 0 0-35.5-35.5 0 0-35.5 35.5 0 0-35.5 35.5 0 0 35.5 35.2 0 0 35.5-35.2 0z"/></svg>

<svg xmlns="http://www.w3.org/2000/svg" viewBox="0 0 512 512"><!--! Font Awesome Free 6.2.0 by @fontawesome - https://fontawesome.com License - https://fontawesome.com/license/free (Icons: CC BY 4.0, Fonts: SIL OFL 1.1, Code: MIT License) Copyright 2022 Fonticons, Inc. --><path d="M256,8C119.1,8,8,119.1,8,256S119.1,504,256,504,504,392.9,504,256,392.9,8,256,8ZM185.3,380a124,124,0,0,1,0-248c31.3,0,60.1,11,83,32.3l-33.6,32.6c-13.2-12.9-31.3-19.1-49.4-19.1-42.9,0-77.2,35.5-77.2,78.1S142.3,334,185.3,334c32.6,0,64.9-19.1,70.1-53.3H185.3V238.1H302.2a109.2,109.2,0,0,1,1.9,20.7c0,70.8-47.5,121.2-118.8,121.2ZM415.5,273.8v35.5H380V273.8H344.5V238.3H380V202.8h35.5v35.5h35.2v35.5Z"/></svg>
